X: 484
T: TRÃBE WELLEN	 op. 74
C: Fryderyk Chopin
%%abc-version 2.0
%%abcx-abcm2ps-target-version 5.9.1 (29 Sep 2008)
%%abc-creator hum2abc beta
%%abcx-conversion-date 2021/10/03 11:23:43
%%abc-edited-by JÄdrzej MrÃ³z
%%abc-edited-by Mateusz Mrugas
%%abcx-initial-encoding-date 2020-01-29
%%humdrum-veritas 3561037429
%%humdrum-veritas-data 1673888333
%%linebreak <none>
%%barnumbers 0
L: 1/4
M: 2/4
N: Derived from 074-1-Sam-003.krn
P: 16 | Polnische Lieder | von Witwicki, Zaleski, Mickiewicz etc. | fÃ¼r eine Singstimme | mit Begleitung des Pianoforte
Q: "Tempo Io."
V: 1 clef=treble
V: 2 clef=treble
V: 3 clef=bass
K: A
[V:1] z2 | 
[V:2] d3/c/ | 
[V:3] F,,F,- | 
[V:1] z2 | 
[V:2] B/c/d/g/ | 
[V:3] ^E2 & DB, | 
[V:1] z2 | 
[V:2] ff | 
[V:3] F2 & A,C | 
[V:1] z2 | 
[V:2] d3/c/ | 
[V:3] F,,F,- | 
[V:1] z2 | 
[V:2] B/c/d/g/ | 
[V:3] ^E2 & DB, | 
[V:1] z2 | 
[V:2] f2 | 
[V:3] F2 & A,C | 
[V:1] z2 | 
[V:2] ^e/f/!trill!=e/d/ | 
[V:3] [CF,E,^A,,][B,D,F,B,,] | 
[V:1] z2 | 
[V:2] ^B/c/!trill!=B/A/ | 
[V:3] [B,^E,C,][B,F,D,] | 
[V:1] z2 | 
[V:2] !trill!G/^F/G/c/ | 
[V:3] [DF,B,,][B,^E,C,] | 
[V:1] z2 | 
[V:2] [FA,][AC] | 
[V:3] F,,(3^E,/F,/C,/ | 
[V:1] z2 | 
[V:2] [FA,][AC] | 
[V:3] F,,(3^E,/F,/C,/ | 
[V:1] z2 ||  
[V:2] [F2A,2] ||  
[V:3] F,,2 ||  
[V:1] cd | 
[V:2] [cAE][BFD] | 
[V:3] A,D, | 
[V:1] B/ F/ G/ E/ | 
[V:2] [G2E2D2] | 
[V:3] E,2 | 
[V:1] c{/cB}A | 
[V:2] [A2E2C2] | 
[V:3] A,,2 | 
[V:1] AB | 
[V:2] [AFC][^GD] | 
[V:3] F,B,, | 
[V:1] G/ ^D/ ^E/ C/ | 
[V:2] [G2^E2C2B,2] | 
[V:3] C,2 | 
[V:1] AF | 
[V:2] [F2C2A,2] | 
[V:3] F,,F, | 
[V:1] zG/ G/ | 
[V:2] z[F/D/G,/] z/ | 
[V:3] !accent!B,,2- | 
[V:1] G/ G/ F/ G/ | 
[V:2] [FDG,][FDG,] | 
[V:3] B,,A,,/B,,/ | 
[V:1] BA | 
[V:2] [FCA,][FCA,] | 
[V:3] C,2 | 
[V:1] zG/ G/ | 
[V:2] z[FB,G,] | 
[V:3] !accent!D,2- | 
[V:1] G/ G/ F/ G/ | 
[V:2] [FB,G,][FB,G,] | 
[V:3] D,C,/D,/ | 
[V:1] BA/ G/ | 
[V:2] [F^B,G,][FB,G,] | 
[V:3] ^D,G,, | 
[V:1] !accent!G3/F/ | 
[V:2] F^E & [C2=B,2G,2] | 
[V:3] C,2 | 
[V:1] Fz | 
[V:2] [FCA,]c/B/ | 
[V:3] F,,z | 
[V:1] z2 | 
[V:2] (3:2:6A/c/G/F/c/A/ | 
[V:3] z2 | 
[V:1] cd | 
[V:2] [cAE][BFD] | 
[V:3] A,D, | 
[V:1] B/ F/ G/ E/ | 
[V:2] [G2E2D2] | 
[V:3] E,2 | 
[V:1] c/c//B//A | 
[V:2] [A2E2C2] | 
[V:3] A,,2 | 
[V:1] AB | 
[V:2] [AFC][GD] | 
[V:3] F,B,, | 
[V:1] G/ ^D/ ^E/ C/ | 
[V:2] [G2^E2C2B,2] | 
[V:3] C,2 | 
[V:1] AF | 
[V:2] [F2C2A,2] | 
[V:3] F,,F, | 
[V:1] G3/G/ | 
[V:2] [F^DG,][FDG,] | 
[V:3] ^B,,=C, | 
[V:1] G/ G/ A/ B/ | 
[V:2] [=F=DG,][EDG,] | 
[V:3] =B,,2 | 
[V:1] cc | 
[V:2] [ECA,][AEC] | 
[V:3] A,,2 | 
[V:1] c/ B/ d/ =G/ | 
[V:2] [=G/D/]B,/ [G/D/]B,/ | 
[V:3] B,,2 | 
[V:1] F^G | 
[V:2] [F/C/]G,/ [^E/C/]G,/ | 
[V:3] C,2 & zC,, | 
[V:1] ^dG | 
[V:2] [G/F/^D/]G,/ [G/F/D/]G,/ | 
[V:3] [^B,,2^B,,,2] | 
[V:1] G3/G/ | 
[V:2] [G/F/^D/]G,/ [G/F/^D/]G,/ | 
[V:3] [=C,2=C,,2] | 
[V:1] G/ G/ A/ B/ | 
[V:2] [G/=F/=D/]G,/ [G/E/=D/]G,/ | 
[V:3] [B,,,B,,]E,, | 
[V:1] cc | 
[V:2] [A/E/C/]A,/ [A/E/C/]A,/ | 
[V:3] [A,,,2A,,2] | 
[V:1] c/ B/ A/ G/ | 
[V:2] [^G/D/]B,/ [G/D/]B,/ | 
[V:3] [B,,,2B,,2] | 
[V:1] FA | 
[V:2] [A/F/C/]A,/ [A/E/C/]A,/ | 
[V:3] [C,,2C,2] | 
[V:1] Gc | 
[V:2] [^E/C/]B,/ [E/C/]B,/ | 
[V:3] [C,,2C,2] | 
[V:1] !fermata!F2 ||  
[V:2] [F2C2A,2] ||  
[V:3] !fermata!F,,2 ||  
[V:1] z2 | 
[V:2] d3/c/ | 
[V:3] F,,F,- | 
[V:1] z2 | 
[V:2] B/c/d/g/ | 
[V:3] ^E2 & DB, | 
[V:1] z2 | 
[V:2] ff | 
[V:3] F2 & A,C | 
[V:1] z2 | 
[V:2] d3/c/ | 
[V:3] F,,F,- | 
[V:1] z2 | 
[V:2] B/c/d/g/ | 
[V:3] ^E2 & DB, | 
[V:1] z2 | 
[V:2] f2 | 
[V:3] F2 & A,C | 
[V:1] z2 | 
[V:2] ^e/f/!trill!=e/d/ | 
[V:3] [CF,E,^A,,][B,F,D,B,,] | 
[V:1] z2 | 
[V:2] ^B/c/!trill!=B/A/ | 
[V:3] [B,^E,C,][B,F,D,] | 
[V:1] z2 | 
[V:2] !trill!G/^F/G/c/ | 
[V:3] [DF,B,,][B,^E,C,] | 
[V:1] z2 | 
[V:2] [FA,][AC] | 
[V:3] F,,(3^E,/F,/C,/ | 
[V:1] z2 | 
[V:2] [FA,][AC] | 
[V:3] F,,(3^E,/F,/C,/ | 
[V:1] z2 ||  
[V:2] [F2A,2] ||  
[V:3] F,,2 ||  
[V:1] cd | 
[V:2] [cAE][BFD] | 
[V:3] A,D, | 
[V:1] B/ F/ G/ E/ | 
[V:2] [G2E2D2] | 
[V:3] E,2 | 
[V:1] c{/cB}A | 
[V:2] [A2E2C2] | 
[V:3] A,,2 | 
[V:1] AB | 
[V:2] [AFC][GD] | 
[V:3] F,B,, | 
[V:1] G/ ^D/ ^E/ C/ | 
[V:2] [G2^E2C2B,2] | 
[V:3] C,2 | 
[V:1] AF | 
[V:2] [F2C2A,2] | 
[V:3] F,,F, | 
[V:1] zG/ G/ | 
[V:2] z[F/D/G,/] z/ | 
[V:3] !accent!B,,2- | 
[V:1] G/ G/ F/ G/ | 
[V:2] [FDG,][FDG,] | 
[V:3] B,,A,,/B,,/ | 
[V:1] BA | 
[V:2] [FCA,][FCA,] | 
[V:3] C,2 | 
[V:1] zG/ G/ | 
[V:2] z[FB,G,] | 
[V:3] !accent!D,2- | 
[V:1] G/ G/ F/ G/ | 
[V:2] [FB,G,][FB,G,] | 
[V:3] D,C,/D,/ | 
[V:1] BA/ G/ | 
[V:2] [F^B,G,][FB,G,] | 
[V:3] ^D,G,, | 
[V:1] !accent!G3/F/ | 
[V:2] F^E & [C2B,2G,2] | 
[V:3] C,2 | 
[V:1] Fz | 
[V:2] [FCA,]c/B/ | 
[V:3] F,,z | 
[V:1] z2 | 
[V:2] (3:2:6A/c/G/F/c/A/ | 
[V:3] z2 | 
[V:1] cd | 
[V:2] [cAE][BFD] | 
[V:3] A,D, | 
[V:1] B/ F/ G/ E/ | 
[V:2] [G2E2D2] | 
[V:3] E,2 | 
[V:1] c/c//B//A | 
[V:2] [A2E2C2] | 
[V:3] A,,2 | 
[V:1] AB | 
[V:2] [AFC][GD] | 
[V:3] F,B,, | 
[V:1] G/ ^D/ ^E/ C/ | 
[V:2] [G2^E2C2B,2] | 
[V:3] C,2 | 
[V:1] AF | 
[V:2] [F2C2A,2] | 
[V:3] F,,F, | 
[V:1] G3/G/ | 
[V:2] [F^DG,][FDG,] | 
[V:3] ^B,,=C, | 
[V:1] G/ G/ A/ B/ | 
[V:2] [=F=DG,][EDG,] | 
[V:3] =B,,2 | 
[V:1] cc | 
[V:2] [ECA,][AEC] | 
[V:3] A,,2 | 
[V:1] c/ B/ d/ =G/ | 
[V:2] [=G/D/]B,/ [G/D/]B,/ | 
[V:3] B,,2 | 
[V:1] F3/^G/ | 
[V:2] [F/C/]G,/ [^E/C/]G,/ | 
[V:3] C,2 & zC,, | 
[V:1] ^dG | 
[V:2] [G/F/^D/]G,/ [G/F/D/]G,/ | 
[V:3] [^B,,2^B,,,2] | 
[V:1] BA/ G/ | 
[V:2] [G/F/^D/]G,/ [G/F/D/]G,/ | 
[V:3] [=C,2=C,,2] | 
[V:1] (3G//A//G// F//G// A/ B/ | 
[V:2] [G/=F/=D/]G,/ [G/E/D/]B,/ | 
[V:3] [B,,B,,,]E,, | 
[V:1] dc | 
[V:2] [A/E/C/]A,/ [A/E/C/]A,/ | 
[V:3] [A,,2A,,,2] | 
[V:1] c/ B/ A/ =G/ | 
[V:2] [=G/D/]B,/ [G/D/]B,/ | 
[V:3] [B,,2B,,,2] | 
[V:1] F3/A/ | 
[V:2] [A/F/C/]A,/ [A/F/C/]A,/ | 
[V:3] [C,2C,,2] | 
[V:1] Gc | 
[V:2] [^E/C/]B,/ [E/C/]B,/ | 
[V:3] [C,2C,,2] | 
[V:1] !fermata!F2 ||  
[V:2] [F2C2A,2] ||  
[V:3] !fermata!F,,2 ||  
[V:1] z2 | 
[V:2] d3/c/ | 
[V:3] F,,F,- | 
[V:1] z2 | 
[V:2] B/c/d/g/ | 
[V:3] ^E2 & DB, | 
[V:1] z2 | 
[V:2] ff | 
[V:3] F2 & A,C | 
[V:1] z2 | 
[V:2] d3/c/ | 
[V:3] F,,F,- | 
[V:1] z2 | 
[V:2] B/c/d/g/ | 
[V:3] ^E2 & DB, | 
[V:1] z2 | 
[V:2] f2 | 
[V:3] F2 & A,C | 
[V:1] z2 | 
[V:2] ^e/f/!trill!=e/d/ | 
[V:3] [CF,E,^A,,][B,F,D,B,,] | 
[V:1] z2 | 
[V:2] ^B/c/!trill!=B/A/ | 
[V:3] [B,^E,C,][B,F,D,] | 
[V:1] z2 | 
[V:2] !trill!G/^F/G/c/ | 
[V:3] [DF,B,,][B,^E,C,] | 
[V:1] z2 | 
[V:2] [FA,][AC] | 
[V:3] F,,(3^E,/F,/C,/ | 
[V:1] z2 | 
[V:2] [FA,][AC] | 
[V:3] F,,(3^E,/F,/C,/ | 
[V:1] z2 |]  
[V:2] [F2A,2] |]  
[V:3] F,,2 |]
